X: 8405
T: Cowan's Head, The
R: jig
M: 6/8
K: Adorian
|:EAA AGA|BAG A2G|EGG GFG|DGG EFG|
EAA AGA|BAG A2c|BAG EFG|1 ~A3 A2G:|2 ~A3 A3||
|:eAA aAA|eAA A2c|BAG GFG|DGG EFG|
eAA aAA|eAA A2c|BAG EFG|1 ~A3 A3:|2 ~A3 A2G||

